X:1
T:Title
%%score { ( 1 4 ) | ( 2 3 ) }
L:1/8
M:6/8
K:Ab
V:1 treble nm="Grand Piano"
V:4 treble 
V:2 bass 
V:3 bass 
V:1
 z3 z2[Q:1/4=75] [Ec] | [Ec]>[=D_c][E=c] [_Ge]2 [Fd]/d/ | c>Bc B<AA | [FB]>[Fc][Fc] [Fe]>[Fd][Fc] | %4
 [Fc]>[GB][=DA] [EB]2 [Ge] | e>fe e<d[Fd] | [Fc]>[=EG][Ec] [GB]<A_c | B>BB c[A=d][Ge] | %8
 fc=d [Ge]3 |[M:6/4][Q:1/4=114] A6 z6 | F6 C6 | _G6 z6 | E6 D6 | B6 A6 | G6 F6 | %15
 E2 F2 G2 A2 [FB]2 [F_c]2 | [=Ec]12 | c6 z6 | F6 B6 | B6 z6 | E6 A6 | B6 c6 | e6 d6 | %23
 [Af]2 [Ae]2 [FAd]2 [EAc] [CEA]3 [DEB]2 | [CEA]12 |] %25
V:2
 z3 z2 [A,,A,] | z3 z2 [D,A,] | [E,A,E]>[E,G,D][E,G,E] [=E,G,D]<[F,C][F,C] | %3
 [D,F,]>[C,=A,][C,A,] [C,A,]>[B,,B,][C,A,] | [D,B,]>[D,B,][F,B,] [E,G,]2 [E,D] | %5
 [A,C_G]>[A,CG][A,CG] [=A,CF]<[B,F][K:bass][B,,B,] | [C,A,]>[C,C][C,C] [F,C]<[F,CF][F,A,=D] | %7
 [G,B,E]>[G,B,E][G,B,E] [A,E][F,B,][E,B,] | [A,CA][A,FA][B,A][K:bass] [E,B,]3 | %9
[M:6/4] z2 C2 C2 G,2 [F,A,C]2 [E,A,C]2 | z2 A,2 A,2 C,6 | z2 =A,2 A,2 F,2 [E,A,C]2 [C,A,]2 | %12
 z2 [F,=A,]2 [F,A,]2 z2 F,2 F,2 | z2[K:treble] D2 D2 z2 D2 D2 | z2 B,2 B,2 z2 B,2 B,2 | %15
 [E,G,D]2 [E,A,D]2 [E,B,D]2 [F,A,C]2 [D,A,]2 [D,G,]2 | [C,G,]12 | %17
 z2 [=A,CE]2 [A,CE]2 z2 [A,CE]2 [A,CE]2 | z2 [F,B,]2 [F,B,]2 z2 [B,D]2 [B,D]2 | %19
 z2 [G,D]2 [G,D]2 z2 [G,D]2 [G,D]2 | z2 A,2 A,2 z2 [A,D]2 [A,D]2 | %21
 z2 [B,D]2 [B,D]2 =A,2 [A,CE]2 [A,CE]2 | %22
 =A,2[K:treble] [A,CF]2 [A,CF]2[K:bass] B,2[K:treble] [B,DF]2 [B,DF]2 | %23
 [=D,_C]2 [E,=C]2 E,2 E, E,3 E,2 | A,,12 |] %25
V:3
 x6 | [A,,A,]>[A,,A,][A,,A,] [C,A,]2 z/ F/ | x6 | x6 | x6 | x5[K:bass] x | x6 | x6 | %8
 x3[K:bass] x3 |[M:6/4] A,6 z6 | F,6 z6 | _G,6 z6 | F,,6 B,,6 | B,6[K:treble] A,6 | G,6 F,6 | x12 | %16
 x12 | F,6 F,6 | D,6 B,,6 | E,6 E,6 | _G,6 F,6 | [D,F,]6 C,6 | %22
 C,6[K:treble][K:bass] B,,6[K:treble] | x12 | x12 |] %25
V:4
 x6 | x6 | x6 | x6 | x6 | x6 | x6 | x6 | x6 |[M:6/4] z2 E2 E2 G2 F2 E2 | z2 C2 C2 z2 A,2 A,2 | %11
 z2 C2 C2 F2 E2 C2 | z2 C2 C2 z2 B,2 B,2 | z2 E2 E2 z2 =E2 E2 | z2 D2 D2 z2 D2 D2 | x12 | x12 | %17
 z2 F2 F2 c2 d2 c2 | z2 D2 D2 z2 F2 =E2 | z2 E2 E2 B2 c2 B2 | z2 C2 C2 z2 F2 F2 | %21
 z2 F2 F2 z2 F2 F2 | z2 =A2 A2 z2 B2 B2 | x12 | x12 |] %25

